dhis-2/dhis-support/dhis-support-system/src/main/resources/SVGs/pregnant_32w_outline.svg

<svg width="48" height="48" viewBox="0 0 48 48" fill="none" xmlns="http://www.w3.org/2000/svg">
<path fill-rule="evenodd" clip-rule="evenodd" d="M23.9997 4.00977C16.1168 4.00977 9.72693 10.4009 9.72693 18.2826C9.72593 26.1655 16.1168 32.5564 23.9997 32.5564C31.8827 32.5564 38.2736 26.1655 38.2726 18.2826C38.2726 10.4007 31.8827 4.00977 23.9997 4.00977ZM23.9957 4.51756C31.5927 4.51646 37.7516 10.6779 37.7516 18.2764C37.7526 25.8763 31.5927 32.0372 23.9957 32.0362C16.3998 32.0362 10.2419 25.8763 10.2419 18.2764C10.2419 10.6785 16.3998 4.51756 23.9957 4.51756ZM22.9118 6.66983C22.7258 6.67113 22.5338 6.77423 22.4468 7.02333C22.1308 7.72532 21.5868 8.21901 21.3478 9.2128C21.0438 10.6449 23.5008 10.7669 24.2677 10.7639C26.4807 10.8449 27.2777 12.2229 25.0037 12.4279C23.1168 12.6049 21.1758 12.6519 20.7948 16.5348C20.7458 17.1028 21.0078 18.1108 21.4648 19.3928C21.6158 20.2328 21.3658 21.2008 20.8628 22.2497C20.6068 22.2197 20.4178 22.1277 20.3708 21.9157C20.4148 21.0108 20.5978 20.2458 20.2378 18.9358C19.8838 17.6648 19.0178 17.0598 18.1388 16.9038C16.3758 16.5378 14.8119 16.2068 13.3999 16.6758C11.9119 17.2338 12.3879 19.4388 13.6679 19.4668L15.2359 19.5098C16.3228 19.5318 16.9118 20.0098 16.3478 21.5367L15.5819 23.7577C14.9559 25.6687 17.0628 27.7587 19.8238 27.9997C22.6158 27.9347 24.2287 26.6877 26.4037 26.0077C28.4887 24.8537 28.1027 24.0347 28.0957 23.3007C27.7487 22.2827 27.7017 21.9127 26.9467 20.7598C26.6517 20.4478 26.5147 20.3608 26.1247 20.1018C25.1757 19.0508 26.7137 18.3838 27.8727 17.0098C28.4747 16.1558 27.4547 15.1538 26.2707 15.5018C25.2717 15.8278 24.7477 16.4368 23.7298 17.4898C23.1498 18.1288 22.3648 19.6228 23.4408 20.8828C23.7418 21.4617 23.3358 21.7367 22.3088 22.0657C21.9718 22.1497 21.7298 22.1667 21.4648 22.2007C21.9988 21.3108 22.1308 20.4018 22.0118 19.4818C21.7838 18.5148 21.3878 17.5888 21.3708 16.5678C21.6978 12.6589 24.0448 13.1969 25.9017 12.8959C26.7837 12.8659 28.6767 10.7699 24.6187 10.0329C23.3458 9.80519 22.0878 9.89859 22.3028 9.0604C22.4858 8.33081 22.9808 7.87322 23.3008 7.30852C23.5178 6.94903 23.2218 6.66773 22.9118 6.66983ZM31.8297 16.5898V16.5918C30.9297 16.5918 30.0317 16.9358 29.3457 17.6228C27.9737 18.9958 27.9717 21.2258 29.3457 22.5977C30.7187 23.9697 32.9476 23.9647 34.3196 22.5897C35.6916 21.2158 35.6876 18.9868 34.3136 17.6148C33.6276 16.9288 32.7296 16.5888 31.8297 16.5898ZM16.0208 35.0956C15.5589 35.0956 15.1339 35.1856 14.7479 35.3626C14.3649 35.5406 14.0669 35.7866 13.8519 36.1036C13.6389 36.4166 13.5329 36.7706 13.5329 37.1676H15.0409C15.0409 36.9136 15.1389 36.7086 15.3339 36.5526C15.5289 36.3926 15.7699 36.3116 16.0588 36.3116C16.3788 36.3116 16.6298 36.3976 16.8108 36.5676C16.9948 36.7386 17.0878 36.9766 17.0878 37.2826C17.0878 37.5995 16.9948 37.8535 16.8108 38.0445C16.6258 38.2355 16.3418 38.3315 15.9589 38.3315H15.1559V39.5115H15.9549C16.7898 39.5115 17.2068 39.8915 17.2068 40.6495C17.2068 40.9635 17.1038 41.2145 16.8978 41.4055C16.6968 41.5935 16.4168 41.6875 16.0588 41.6875C15.7449 41.6875 15.4809 41.5965 15.2659 41.4155C15.0529 41.2345 14.9469 41.0015 14.9469 40.7165H13.4389C13.4389 41.3735 13.6779 41.9045 14.1579 42.3045C14.6419 42.7045 15.2629 42.9035 16.0208 42.9035C16.8318 42.9035 17.4838 42.6995 17.9748 42.2925C18.4688 41.8855 18.7148 41.3445 18.7148 40.6695C18.7148 40.2515 18.6088 39.8895 18.3958 39.5835C18.1878 39.2775 17.8688 39.0495 17.4408 38.8955C17.7858 38.7395 18.0648 38.5145 18.2768 38.2225C18.4898 37.9295 18.5958 37.6095 18.5958 37.2616C18.5958 36.5866 18.3678 36.0586 17.9118 35.6756C17.4558 35.2896 16.8248 35.0956 16.0208 35.0956ZM22.2478 35.0956C21.7368 35.0956 21.2808 35.2066 20.8768 35.4256C20.4728 35.6416 20.1588 35.9396 19.9378 36.3216C19.7178 36.7046 19.6068 37.1286 19.6068 37.5915H21.1208C21.1208 37.2086 21.2188 36.9006 21.4138 36.6676C21.6118 36.4306 21.8818 36.3116 22.2228 36.3116C22.5388 36.3116 22.7828 36.4106 22.9528 36.6046C23.1238 36.7966 23.2088 37.0606 23.2088 37.3975C23.2088 37.6445 23.1278 37.9065 22.9648 38.1815C22.8048 38.4565 22.5538 38.7765 22.2168 39.1445L19.7598 41.7655V42.8005H24.9687V41.5835H21.7008L23.4278 39.7615C23.9008 39.2425 24.2347 38.7895 24.4297 38.3995C24.6247 38.0105 24.7227 37.6275 24.7227 37.2515C24.7227 36.5656 24.5047 36.0356 24.0697 35.6596C23.6388 35.2836 23.0308 35.0956 22.2478 35.0956ZM25.5617 35.2006L27.2477 42.8005H28.8257L30.0617 37.7165L31.2987 42.8005H32.8746L34.5606 35.2006H32.9996L31.9787 40.6065L30.7297 35.2006H29.4037L28.1517 40.5975L27.1227 35.2006H25.5617Z" fill="#333333"/>
</svg>

<?xml version="1.0" encoding="UTF-8" standalone="no"?>
<!-- Created with Inkscape (http://www.inkscape.org/) -->
<svg id="svg8" xmlns:rdf="http://www.w3.org/1999/02/22-rdf-syntax-ns#" xmlns="http://www.w3.org/2000/svg" height="48" viewBox="0 0 12.7 12.7" width="48" version="1.1" xmlns:cc="http://creativecommons.org/ns#" xmlns:dc="http://purl.org/dc/elements/1.1/">
 <title id="title4753">UIO-icon</title>
 <metadata id="metadata5">
  <rdf:RDF>
   <cc:Work rdf:about="">
    <dc:format>image/svg+xml</dc:format>
    <dc:type rdf:resource="http://purl.org/dc/dcmitype/StillImage"/>
    <dc:title>UIO-icon</dc:title>
    <dc:creator>
     <cc:Agent>
      <dc:title>Joaquín Urbano</dc:title>
     </cc:Agent>
    </dc:creator>
    <dc:rights>
     <cc:Agent>
      <dc:title>GPL</dc:title>
     </cc:Agent>
    </dc:rights>
   </cc:Work>
  </rdf:RDF>
 </metadata>
 <path id="circle5040" d="m24 4.0098c-7.883 0-14.273 6.3912-14.273 14.273-0.001 7.883 6.39 14.274 14.273 14.274s14.274-6.391 14.273-14.274c0-7.882-6.39-14.273-14.273-14.273zm-0.004 0.5078c7.597-0.0011 13.756 6.1604 13.756 13.759 0.001 7.6-6.159 13.761-13.756 13.76-7.596 0-13.754-6.16-13.754-13.76 0-7.598 6.158-13.759 13.754-13.759zm-1.084 2.1523c-0.186 0.0013-0.378 0.1044-0.465 0.3535-0.316 0.702-0.86 1.1957-1.099 2.1895-0.304 1.4321 2.153 1.5541 2.92 1.5511 2.213 0.081 3.01 1.459 0.736 1.664-1.887 0.177-3.828 0.224-4.209 4.107-0.049 0.568 0.213 1.576 0.67 2.858 0.151 0.84-0.099 1.808-0.602 2.857-0.256-0.03-0.445-0.122-0.492-0.334 0.044-0.905 0.227-1.67-0.133-2.98-0.354-1.271-1.22-1.876-2.099-2.032-1.763-0.366-3.327-0.697-4.739-0.228-1.488 0.558-1.012 2.763 0.268 2.791l1.568 0.043c1.087 0.022 1.676 0.5 1.112 2.027l-0.766 2.221c-0.626 1.911 1.481 4.001 4.242 4.242 2.792-0.065 4.405-1.312 6.58-1.992 2.085-1.154 1.699-1.973 1.692-2.707-0.347-1.018-0.394-1.388-1.149-2.541-0.295-0.312-0.432-0.399-0.822-0.658-0.949-1.051 0.589-1.718 1.748-3.092 0.602-0.854-0.418-1.856-1.602-1.508-0.999 0.326-1.523 0.935-2.541 1.988-0.58 0.639-1.365 2.133-0.289 3.393 0.301 0.579-0.105 0.854-1.132 1.183-0.337 0.084-0.579 0.101-0.844 0.135 0.534-0.89 0.666-1.799 0.547-2.719-0.228-0.967-0.624-1.893-0.641-2.914 0.327-3.909 2.674-3.371 4.531-3.672 0.882-0.03 2.775-2.126-1.283-2.863-1.273-0.2277-2.531-0.1343-2.316-0.9725 0.183-0.7296 0.678-1.1872 0.998-1.7519 0.217-0.3595-0.079-0.6408-0.389-0.6387zm8.918 9.9201v0.002c-0.9 0-1.798 0.344-2.484 1.031-1.372 1.373-1.374 3.603 0 4.975 1.373 1.372 3.602 1.367 4.974-0.008 1.372-1.374 1.368-3.603-0.006-4.975-0.686-0.686-1.584-1.026-2.484-1.025zm-15.809 18.506c-0.462 0-0.887 0.09-1.273 0.267-0.383 0.178-0.681 0.424-0.896 0.741-0.213 0.313-0.319 0.667-0.319 1.064h1.508c0-0.254 0.098-0.459 0.293-0.615 0.195-0.16 0.436-0.241 0.725-0.241 0.32 0 0.571 0.086 0.752 0.256 0.184 0.171 0.277 0.409 0.277 0.715 0 0.317-0.093 0.571-0.277 0.762-0.185 0.191-0.469 0.287-0.852 0.287h-0.803v1.18h0.799c0.835 0 1.252 0.38 1.252 1.138 0 0.314-0.103 0.565-0.309 0.756-0.201 0.188-0.481 0.282-0.839 0.282-0.314 0-0.578-0.091-0.793-0.272-0.213-0.181-0.319-0.414-0.319-0.699h-1.508c0 0.657 0.239 1.188 0.719 1.588 0.484 0.4 1.105 0.599 1.863 0.599 0.811 0 1.463-0.204 1.954-0.611 0.494-0.407 0.74-0.948 0.74-1.623 0-0.418-0.106-0.78-0.319-1.086-0.208-0.306-0.527-0.534-0.955-0.688 0.345-0.156 0.624-0.381 0.836-0.673 0.213-0.293 0.319-0.613 0.319-0.961 0-0.675-0.228-1.203-0.684-1.586-0.456-0.386-1.087-0.58-1.891-0.58zm6.227 0c-0.511 0-0.967 0.111-1.371 0.33-0.404 0.216-0.718 0.514-0.939 0.896-0.22 0.383-0.331 0.807-0.331 1.27h1.514c0-0.383 0.098-0.691 0.293-0.924 0.198-0.237 0.468-0.356 0.809-0.356 0.316 0 0.56 0.099 0.73 0.293 0.171 0.192 0.256 0.456 0.256 0.793 0 0.247-0.081 0.509-0.244 0.784-0.16 0.275-0.411 0.595-0.748 0.963l-2.457 2.621v1.035h5.209v-1.217h-3.268l1.727-1.822c0.473-0.519 0.807-0.972 1.002-1.362 0.195-0.389 0.293-0.772 0.293-1.148 0-0.686-0.218-1.216-0.653-1.592-0.431-0.376-1.039-0.564-1.822-0.564zm3.314 0.105l1.686 7.6h1.578l1.236-5.084 1.237 5.084h1.576l1.686-7.6h-1.561l-1.021 5.406-1.249-5.406h-1.326l-1.252 5.397-1.029-5.397h-1.561z" fill-rule="evenodd" transform="scale(.26458)" stroke-width=".99999" fill="#333"/>
</svg>
